flaticon/education/book-6.svg

<svg xmlns="http://www.w3.org/2000/svg" width="32" height="32" viewBox="0 0 24 24">
    <path d="M5.792969 21.101562L3.722656 21.101562C3.476562 21.101562 3.308594 21.269531 3.308594 21.515625 3.308594 21.765625 3.476562 21.929688 3.722656 21.929688L5.792969 21.929688C6.042969 21.929688 6.207031 21.765625 6.207031 21.515625 6.207031 21.269531 6.042969 21.101562 5.792969 21.101562zM17.792969 21.101562L7.449219 21.101562C7.199219 21.101562 7.035156 21.269531 7.035156 21.515625 7.035156 21.765625 7.199219 21.929688 7.449219 21.929688L17.792969 21.929688C18.042969 21.929688 18.207031 21.765625 18.207031 21.515625 18.207031 21.269531 18.042969 21.101562 17.792969 21.101562zM17.792969 21.101562"/>
    <path d="M 20.566406 0 L 3.269531 0 C 2.398438 0 1.65625 0.746094 1.65625 1.613281 L 1.65625 21.515625 C 1.65625 22.882812 2.773438 24 4.136719 24 L 21.351562 24 C 21.890625 24 22.34375 23.542969 22.34375 23.007812 L 22.34375 1.78125 C 22.34375 0.785156 21.558594 0 20.566406 0 Z M 19.449219 0.828125 L 19.449219 19.035156 L 4.964844 19.035156 L 4.964844 0.828125 Z M 2.484375 1.613281 C 2.484375 1.199219 2.855469 0.828125 3.269531 0.828125 L 4.136719 0.828125 L 4.136719 19.035156 C 3.515625 19.035156 2.9375 19.242188 2.484375 19.65625 Z M 2.484375 21.515625 C 2.484375 20.605469 3.226562 19.863281 4.136719 19.863281 L 19.449219 19.863281 L 19.449219 23.171875 L 4.136719 23.171875 C 3.226562 23.171875 2.484375 22.425781 2.484375 21.515625 Z M 21.515625 23.007812 C 21.515625 23.089844 21.433594 23.171875 21.351562 23.171875 L 20.277344 23.171875 L 20.277344 19.863281 L 21.515625 19.863281 Z M 20.277344 19.035156 L 20.277344 0.828125 L 20.566406 0.828125 C 21.101562 0.828125 21.515625 1.242188 21.515625 1.777344 L 21.515625 19.035156 Z M 20.277344 19.035156"/>
    <path d="M8.8125 7.863281L15.1875 7.863281C15.722656 7.863281 16.136719 7.449219 16.136719 6.867188L16.136719 3.847656C16.136719 3.308594 15.722656 2.898438 15.144531 2.898438L8.8125 2.898438C8.277344 2.898438 7.863281 3.308594 7.863281 3.847656L7.863281 6.910156C7.863281 7.449219 8.277344 7.863281 8.8125 7.863281zM8.691406 3.847656C8.691406 3.808594 8.730469 3.722656 8.8125 3.722656L15.1875 3.722656C15.269531 3.722656 15.308594 3.808594 15.269531 3.847656L15.269531 6.867188C15.269531 6.953125 15.226562 6.992188 15.144531 6.992188L8.8125 6.992188C8.730469 6.992188 8.691406 6.953125 8.691406 6.867188zM9.515625 14.484375C9.269531 14.484375 9.101562 14.648438 9.101562 14.898438 9.101562 15.144531 9.269531 15.308594 9.515625 15.308594L14.484375 15.308594C14.730469 15.308594 14.898438 15.144531 14.898438 14.898438 14.898438 14.648438 14.730469 14.484375 14.484375 14.484375zM7.863281 16.964844L16.136719 16.964844C16.386719 16.964844 16.550781 16.800781 16.550781 16.550781 16.550781 16.304688 16.386719 16.136719 16.136719 16.136719L7.863281 16.136719C7.613281 16.136719 7.449219 16.304688 7.449219 16.550781 7.449219 16.800781 7.613281 16.964844 7.863281 16.964844zM7.863281 16.964844"/>
</svg>

<svg xmlns="http://www.w3.org/2000/svg" width="32" height="32" viewBox="0 0 24 24">
    <path d="M5.793 21.102h-2.07a.394.394 0 0 0-.414.414c0 .25.168.414.414.414h2.07c.25 0 .414-.164.414-.414 0-.246-.164-.414-.414-.414zm0 0M17.793 21.102H7.449c-.25 0-.414.168-.414.414 0 .25.164.414.414.414h10.344c.25 0 .414-.164.414-.414 0-.246-.164-.414-.414-.414zm0 0"/>
    <path d="M20.566 0H3.27c-.872 0-1.614.746-1.614 1.613v19.903A2.49 2.49 0 0 0 4.136 24h17.216c.539 0 .992-.457.992-.992V1.78C22.344.785 21.559 0 20.566 0zM19.45.828v18.207H4.965V.828zm-16.965.785c0-.414.371-.785.786-.785h.867v18.207c-.621 0-1.2.207-1.653.621zm0 19.903c0-.91.743-1.653 1.653-1.653h15.312v3.309H4.137c-.91 0-1.653-.746-1.653-1.656zm19.032 1.492a.176.176 0 0 1-.164.164h-1.075v-3.309h1.239zm-1.239-3.973V.828h.29c.535 0 .949.414.949.95v17.257zm0 0"/>
    <path d="M8.813 7.863h6.374c.536 0 .95-.414.95-.996v-3.02c0-.538-.414-.949-.992-.949H8.813c-.536 0-.95.41-.95.95V6.91c0 .54.414.953.95.953zM8.69 3.848c0-.04.04-.125.121-.125h6.376c.082 0 .12.086.082.125v3.02c0 .085-.043.124-.125.124H8.813c-.083 0-.122-.039-.122-.125zm0 0M9.516 14.484c-.246 0-.414.164-.414.414 0 .247.168.41.414.41h4.968c.246 0 .414-.163.414-.41 0-.25-.168-.414-.414-.414zm0 0M7.863 16.965h8.274c.25 0 .414-.164.414-.414 0-.246-.164-.414-.414-.414H7.863c-.25 0-.414.168-.414.414 0 .25.164.414.414.414zm0 0"/>
</svg>
